outputs/icons/content/remove_circle_outline_round.svg

<svg xmlns="http://www.w3.org/2000/svg" width="1200" height="1200" fill="none"><g clip-path="url(#a)"><path fill="#000" d="M350 600c0 27.5 22.5 50 50 50h400c27.5 0 50-22.5 50-50s-22.5-50-50-50H400c-27.5 0-50 22.5-50 50m250-500c-276 0-500 224-500 500s224 500 500 500 500-224 500-500-224-500-500-500m0 900c-220.5 0-400-179.5-400-400s179.5-400 400-400 400 179.5 400 400-179.5 400-400 400"/></g><defs><clipPath id="a"><path fill="#fff" d="M0 0h1200v1200H0z"/></clipPath></defs></svg>

<svg width="1200" height="1200" viewBox="0 0 1200 1200" fill="none" xmlns="http://www.w3.org/2000/svg"><g clip-path="url(#clip0_225_3310)"><path d="M350 600C350 627.5 372.5 650 400 650H800C827.5 650 850 627.5 850 600C850 572.5 827.5 550 800 550H400C372.5 550 350 572.5 350 600ZM600 100C324 100 100 324 100 600C100 876 324 1100 600 1100C876 1100 1100 876 1100 600C1100 324 876 100 600 100ZM600 1000C379.5 1000 200 820.5 200 600C200 379.5 379.5 200 600 200C820.5 200 1000 379.5 1000 600C1000 820.5 820.5 1000 600 1000Z" fill="#1D1E23"/></g><defs><clipPath id="clip0_225_3310"><path width="24" fill="white" d="M0 0H1200V1200H0V0z"/></clipPath></defs></svg>
